X: 4
T: The Bird In The Bush
R: reel
M: 4/4
L: 1/8
K: Gmaj
|: d2eB dB~B2 | dBAB GAAG | EG~G2 BG~G2 | BGBd eage |
d2eB dB~B2 | dBAB ~G2GE | DEGA B2eB | dBAc BG~G2 :|
|: (3Bcd ef g2fg | af~f2 gfed | Bdef ~g3b | agab g3a |
bg~g2 agef | ~g3e dBGE | DEGA B2eB | dBAc BGG2 :|


Tune 629	Setting 25450

